X: 17
M:9/8
L:1/8
K:G
|:e/2f/2|g2 g gag fed|g2 g gbg afd|g2 g gag fed|efg afd g2:|
|:c|BGB BGB c2 d|BGB BGB AFD|BGB BGB c2 d|ege fed g2:||

